X: 11403
T: East Clare, The
R: reel
M: 4/4
K: Ddorian
|:DEFA d2cA|GEED E~G3|Adde dcAd|cAGE FAEA|
D3A d2cA|GEED E~G3|A2de dcAd|cAGE D4:|
|:aged cded|c3d e~g3|aged B/c/ded|cAGE D4|
{d}e3g agec|dcAd cAG2|{G}A2FE FGAB|1 cAGE D~a3:|2 cAGE F3E||

